!!!OTL: Die Nonne (18a), S. 76f
!!!id: T0131
**kern
*clefG2
*k[f#]
*G:
{8d
=1
8g
8d
8d
8B
8d
8b
=2
8b
8a}
4.r
=3
{16d
16d
=4
8d
8f#
8a
8ee
8dd
8cc
=5
4b}
4.r
=6
{16b
16cc
=7
8dd
8dd
8dd
8dd
8cc
8b
=8
8cc
8a}
4.r
=9
{8d
=10
8d
8f#
8a
8cc
8b
8a
=11
4g}
4.r
=12
{16b
16cc
=13
8dd
8dd
8dd
8dd
8cc
8b
=14
8cc
8a}
4.r
=15
{8d
=16
8d
8f#
8a
8cc
8b
8a
=17
4g}
4.r
==
*-
!!!minrhy: 16
!!!meters: 6/8 ]  ZZ[6
!!!cut: Die Nonne (18a), S. 76f
!!!reg: Luxemburg
!!!trd: Singendes Volk, Esch-Alzette 1937 posth.
!!!rhy1: X_  X_X_X_X_X_X_  X_X_0__.
!!!rhy2: XX  X_X_X_X_X_X_  X__0__.
!!!key: T0131  16  G 6/8 ]  ZZ[6
!!!mod: HEPTATONIK IONISCH]  AMBITUS[11
!!!kad: 232121
!!!akz: 1-33_-563_554_-541_554_-541_
!!!fot: 'a__b__c__d__c__d__
!!!for: 'a__aw_av_aw_av_aw_
!!!fok: '~a_^a_^d_^a_^d_^a_
!! PHRAS[AUFTAKTIG]
!!!fkt: Liebeslieder
!!!bem1: (18b)- Junglinster, Mutter des Autors, 1890
!!!bem2: (18c)- StraPen, fff D&uuml;mont-Witry, 1932
!!!bem3: (18d)- Fels, fff Gödert, 1930
!!!bem4: (18e)- Bofferdingen, fff Georges-Mallinger, 16.9.1934
!! THILL, Mathias:
!! PR[34] 2K[2] 2G[10] 3K[10] 3G[5] 4A[7] 4Ü[0] 5A[0] 6K[0] 6G[0]
!! 7K[0] 7G[0] 8A[0] MEHR[0] SI[34] ABS[41] SR[12] SP[22]
!! ST[10] 2k[7] 2g[15] 3k[2] 3g[0] 4d[5] 4ü[0] 5d[2] 6k[0] 6g[0]
!! 7k[0] 7g[0] 8d[0] mehr[0] si[32] dm[+2] sr[22] sp[10]
!! 1F[23] 2F[70] 3F[2] 4F[0] LF[0] 2P[5] 3P[0] 4P[0] TRI[0] DF[4] AB[43]
!! TF[0] U3K[0] U3[2] U4[0] U4Ü[0] U5[14] U6K[0] U6[0] U7K[0] U7[2]
!! N1[12] N2K[0] N2[14] N3K[0] N3[26] N4[14] N4Ü[0] N5[12] N6K[0] N6[2]
!!!n7k: 0] N7[0] O1[0] O2K[0] O2[0] O3K[0] O3[0] HÖ[0
!!!RNB: symbol: &uuml;  = u umlaut (UTF-8: Ã¼)
